X: 13
T: The Irish Washerwoman
R: jig
M: 6/8
L: 1/8
K: Dmaj
|:FDD ADD|FDF AGF|GEE BEE|GEG BAG|
FDD ADD|FDF AGF|GFG EAG|FDD D3:|
|:dAd dAd|dAd fed|cAc cAc|cAc edc|
Bdd Add| Gdd F2F|GFG EAG|1FDD D2A:|2FDD D2E||


Tune 92	Setting 92

